icons/video-camera.svg

<svg xmlns="http://www.w3.org/2000/svg" width="24" height="24" viewBox="0 0 24 24">
  <path d="M16,16 C16,17.1045695 15.1045695,18 14,18 L4,18 C2.8954305,18 2,17.1045695 2,16 L2,8 C2,6.8954305 2.8954305,6 4,6 L14,6 C15.1045695,6 16,6.8954305 16,8 L16,9.83333333 L20.3598156,6.20015367 C20.7840925,5.84658959 21.4146572,5.90391365 21.7682213,6.32819055 C21.9179838,6.50790555 22,6.73443844 22,6.96837495 L22,15.9648162 C22,16.517101 21.5522847,16.9648162 21,16.9648162 C20.802575,16.9648162 20.6095673,16.9063782 20.4452998,16.7968665 L16,13.8333333 L16,16 Z"/>
</svg>

<svg xmlns="http://www.w3.org/2000/svg" viewBox="0 0 24 24">
  <path d="M16 16a2 2 0 0 1-2 2H4a2 2 0 0 1-2-2V8c0-1.1.9-2 2-2h10a2 2 0 0 1 2 2v1.83l4.36-3.63a1 1 0 0 1 1.64.77v9a1 1 0 0 1-1.55.83L16 13.83V16z"/>
</svg>
